svg/u1faf0_1f3fc.svg

<svg viewBox="0 0 128 128" xmlns="http://www.w3.org/2000/svg" xmlns:xlink="http://www.w3.org/1999/xlink">
  <linearGradient id="hand_1_" gradientUnits="userSpaceOnUse" x1="52.6222" x2="20.2502" y1="88.2334" y2="152.4193">
    <stop offset="0.5" stop-color="#E0BB95"/>
    <stop offset="1" stop-color="#CCA47A"/>
  </linearGradient>
  <path id="hand" d="M104.26,74.27c-2.03-1.42-7.65-1.48-7.65-1.48s0.4-9.4-6.43-13.16 c-6.35-3.21-11.91,1.04-11.91,1.04s0.81-9.54-5.95-13.23c-3.67-2.01-12.1,0.76-12.1,0.76S64.95,38,68.91,32.56 c4.99-6.86,8.72-12.53,8.99-18.02c0.28-5.86-2.84-7.93-7.09-7.93c-2.28,0-4.68,0.72-7.41,3.13c-2.11,1.86-5.13,4.46-10.56,11.12 c-0.15-0.4-0.33-0.81-0.58-1.22C49.56,13.83,43.05,6.52,36.8,7.02c-1.48,0.12-8.77,1.16-4.94,12.35c1.55,4.53,4.2,13.59,5.27,23.29 c-5.88,9.46-11.98,21.46-15.55,31.33c-3.21,8.86-1.28,15.01,1.23,18.81c6.39,9.68,24.95,25.9,58.64,29.01 c7.55,0.7,14.35-2.76,16.8-5.58c3.44-3.95,5.45-9.64,8-18.93C108.79,88,110.2,78.42,104.26,74.27z" fill="url(#hand_1_)"/>
  <g id="tone">
    <path d="M54.05,20.33c-3.39-6.8-9.64-15.36-16.56-14.85l-1.01,4.21c6.44-0.98,11.06,6.24,11.84,10.14 c0.28,1.38,0.65,2.65-2.47,7.41c-0.76,1.17-2.15,2.86-3.5,3.41c-2.31,0.94-4.02,0-4.73-2.39c-1.76-5.95-2.79-9.01-3.59-11.22 c-0.93-2.57-1.06-4.59-0.34-5.7c0.82-1.28,2.95-1.77,4.07-1.86l-0.27-4c-0.01,0-0.02,0-0.04,0c-1.65,0.13-11.39,1.36-7.18,12.92 c1.78,4.88,4.85,14.83,5.89,25.33L54.05,20.33z" fill="#BA8F63"/>
    <path d="M88.97,97.26c-3.96-1.06-2.13-4.37-1.27-7.03c2.43-6.75,5.56-12.69,6.45-19.89l3.99,0.33 c-0.64,8.73-6.64,17.86-6.3,22.46C92.18,97.55,90.51,97.67,88.97,97.26z" fill="#BA8F63"/>
    <path d="M71.53,86.69c-1.29-0.04-2.97-0.42-3.89-1.31c-1.51-2.24,1.33-4.1,2.2-5.96 c2.48-6.9,5.04-13.81,7.97-20.55c0,0,3.63,1.69,3.63,1.69c-3.07,6.83-5.57,14.58-8.48,21.53C72.9,83.71,73.11,86.74,71.53,86.69z" fill="#BA8F63"/>
    <path d="M106.81,73.54c-3.7-4.3-8.77-2.81-8.77-2.81s0.07-8.98-7.06-12.91c-2.17-1.1-4.15-1.47-5.82-1.47 c-3.45,0-5.63,1.57-5.63,1.57s1.2-7.97-5.78-12.01c-4.83-2.8-8.76-0.85-8.76-0.85s3.06-6.56,6.51-12.7 c4.4-7.81,8.62-12.74,9.05-18.48C81.06,6.94,76.67,4,71.1,4c0,0,0,0-0.01,0c-2.38,0-4.89,0.75-7.75,3.28 c-3.45,3.05-9.24,7.95-23.35,28.12c-7.24,10.34-16.86,25.64-20.81,38.53c-1.38,4.51-2.09,10.88-0.38,15.32 c2.98,7.7,11.79,15.78,18.45,20.18c2.71,1.79,9.14,5.11,13.05,7.01l2.75-3.29c-3.81-1.82-10.91-5.37-13.71-7.2 c-6.81-4.45-14.85-13.52-16.83-18.34c-1.49-3.61-0.42-9.32,0.55-12.47c3.77-12.31,13.26-27.39,20.25-37.39 c13.47-19.25,22.71-27.41,22.71-27.41c4.78-3.71,8.63-1.75,9.48-0.84c0.79,0.85,1.12,2.23,0.98,4.09 c-0.34,4.55-4.16,9.38-8.64,16.77c-13.1,21.62-18.11,35.28-19.16,37.6c-1.48,2.09-3.46,3.19-3.98,4.69 c-0.87,2.52,2.75,3.69,4.07,3.16c1.32-0.53,2.78-4.67,3.96-7.15c2.65-5.57,6.74-13.06,8.55-16.4c1.81-3.34,7.23-4.18,10.51-2.76 c4.33,2.37,4.59,6.18,4.52,8.78c-0.08,2.6-1.03,6.7-1.03,6.7l4.7-0.98c0.23-0.14,3.77-5.44,10.11-1.82 c5.36,3.47,3.7,13.41,3.7,13.41l3.5,0.77c0,0,3.83-2.06,6.43-0.15c3.62,2.66,3.12,12.09,0.51,21.61 c-2.49,9.07-4.42,14.66-7.51,18.21c-1.14,1.31-8.19,7.46-31.7,1.49c-3.46-0.88-8.05-2.6-12.63-4.64l-2.08,3.59 c4.87,2.21,9.87,4.1,13.72,5c26.96,6.26,33.87-0.58,35.76-2.76c3.6-4.13,5.7-10.08,8.37-19.81S111.36,78.82,106.81,73.54z" fill="#BA8F63"/>
  </g>
</svg>

<svg viewBox="0 0 128 128" xmlns="http://www.w3.org/2000/svg">
  <defs>
    <linearGradient id="hand_1_" gradientUnits="userSpaceOnUse" x1="52.6222" x2="20.2502" y1="88.2334" y2="152.4193">
      <stop offset="0.5" stop-color="#E0BB95"/>
      <stop offset="1" stop-color="#CCA47A"/>
    </linearGradient>
  </defs>
  <path id="hand" d="M104.26,74.27 C102.23,72.85 96.61,72.79 96.61,72.79 C96.61,72.79 97.01,63.39 90.18,59.63 C83.83,56.42 78.27,60.67 78.27,60.67 C78.27,60.67 79.08,51.13 72.32,47.44 C68.65,45.43 60.22,48.2 60.22,48.2 C60.22,48.2 64.95,38 68.91,32.56 C73.9,25.7 77.63,20.03 77.9,14.54 C78.18,8.68 75.06,6.61 70.81,6.61 C68.53,6.61 66.13,7.33 63.4,9.74 C61.29,11.6 58.27,14.2 52.84,20.86 C52.69,20.46 52.51,20.05 52.26,19.64 C49.56,13.83 43.05,6.52 36.8,7.02 C35.32,7.14 28.03,8.18 31.86,19.37 C33.41,23.9 36.06,32.96 37.13,42.66 C31.25,52.12 25.15,64.12 21.58,73.99 C18.37,82.85 20.3,89 22.81,92.8 C29.2,102.48 47.76,118.7 81.45,121.81 C89,122.51 95.8,119.05 98.25,116.23 C101.69,112.28 103.7,106.59 106.25,97.3 C108.79,88 110.2,78.42 104.26,74.27 Z" fill="url(#hand_1_)"/>
  <path d="M54.05,20.33 C50.66,13.53 44.41,4.97 37.49,5.48 L36.48,9.69 C42.92,8.71 47.54,15.93 48.32,19.83 C48.6,21.21 48.97,22.48 45.85,27.24 C45.09,28.41 43.7,30.1 42.35,30.65 C40.04,31.59 38.33,30.65 37.62,28.26 C35.86,22.31 34.83,19.25 34.03,17.04 C33.1,14.47 32.97,12.45 33.69,11.34 C34.51,10.06 36.64,9.57 37.76,9.48 L37.49,5.48 C37.48,5.48 37.47,5.48 37.45,5.48 C35.8,5.61 26.06,6.84 30.27,18.4 C32.05,23.28 35.12,33.23 36.16,43.73 L54.05,20.33 Z" fill="#BA8F63"/>
  <path d="M88.97,97.26 C85.01,96.2 86.84,92.89 87.7,90.23 C90.13,83.48 93.26,77.54 94.15,70.34 L98.14,70.67 C97.5,79.4 91.5,88.53 91.84,93.13 C92.18,97.55 90.51,97.67 88.97,97.26 Z" fill="#BA8F63"/>
  <path d="M71.53,86.69 C70.24,86.65 68.56,86.27 67.64,85.38 C66.13,83.14 68.97,81.28 69.84,79.42 C72.32,72.52 74.88,65.61 77.81,58.87 C77.81,58.87 81.44,60.56 81.44,60.56 C78.37,67.39 75.87,75.14 72.96,82.09 C72.9,83.71 73.11,86.74 71.53,86.69 Z" fill="#BA8F63"/>
  <path d="M106.81,73.54 C103.11,69.24 98.04,70.73 98.04,70.73 C98.04,70.73 98.11,61.75 90.98,57.82 C88.81,56.72 86.83,56.35 85.16,56.35 C81.71,56.35 79.53,57.92 79.53,57.92 C79.53,57.92 80.73,49.95 73.75,45.91 C68.92,43.11 64.99,45.06 64.99,45.06 C64.99,45.06 68.05,38.5 71.5,32.36 C75.9,24.55 80.12,19.62 80.55,13.88 C81.06,6.94 76.67,4 71.1,4 C71.1,4 71.1,4 71.09,4 C68.71,4 66.2,4.75 63.34,7.28 C59.89,10.33 54.1,15.23 39.99,35.4 C32.75,45.74 23.13,61.04 19.18,73.93 C17.8,78.44 17.09,84.81 18.8,89.25 C21.78,96.95 30.59,105.03 37.25,109.43 C39.96,111.22 46.39,114.54 50.3,116.44 L53.05,113.15 C49.24,111.33 42.14,107.78 39.34,105.95 C32.53,101.5 24.49,92.43 22.51,87.61 C21.02,84 22.09,78.29 23.06,75.14 C26.83,62.83 36.32,47.75 43.31,37.75 C56.78,18.5 66.02,10.34 66.02,10.34 C70.8,6.63 74.65,8.59 75.5,9.5 C76.29,10.35 76.62,11.73 76.48,13.59 C76.14,18.14 72.32,22.97 67.84,30.36 C54.74,51.98 49.73,65.64 48.68,67.96 C47.2,70.05 45.22,71.15 44.7,72.65 C43.83,75.17 47.45,76.34 48.77,75.81 C50.09,75.28 51.55,71.14 52.73,68.66 C55.38,63.09 59.47,55.6 61.28,52.26 C63.09,48.92 68.51,48.08 71.79,49.5 C76.12,51.87 76.38,55.68 76.31,58.28 C76.23,60.88 75.28,64.98 75.28,64.98 L79.98,64 C80.21,63.86 83.75,58.56 90.09,62.18 C95.45,65.65 93.79,75.59 93.79,75.59 L97.29,76.36 C97.29,76.36 101.12,74.3 103.72,76.21 C107.34,78.87 106.84,88.3 104.23,97.82 C101.74,106.89 99.81,112.48 96.72,116.03 C95.58,117.34 88.53,123.49 65.02,117.52 C61.56,116.64 56.97,114.92 52.39,112.88 L50.31,116.47 C55.18,118.68 60.18,120.57 64.03,121.47 C90.99,127.73 97.9,120.89 99.79,118.71 C103.39,114.58 105.49,108.63 108.16,98.9 C110.83,89.17 111.36,78.82 106.81,73.54 Z" fill="#BA8F63"/>
</svg>
